mortgage.svg

<svg xmlns="http://www.w3.org/2000/svg" width="142" height="142" viewBox="0 0 142 142"><defs><clipPath id="geqga"><path d="M24 112.603V29h94.08v83.603z"/></clipPath></defs><g><g><g><path fill="#fbfbfb" d="M71 0c39.212 0 71 31.788 71 71s-31.788 71-71 71S0 110.212 0 71 31.788 0 71 0z"/></g><g><g><g/><g clip-path="url(#geqga)"><path d="M92.35 30.738c.016-.002 1.503-.138 2.547.807.748.678 1.127 1.778 1.127 3.27v40.848a.866.866 0 0 0 1.731 0V34.816c0-2.014-.577-3.552-1.715-4.57-1.503-1.346-3.453-1.26-3.818-1.235H49.663c-1.534 0-2.766.466-3.663 1.385-1.457 1.494-1.423 3.63-1.421 3.7v37.143a.866.866 0 0 0 1.73 0v-37.16c0-.015-.01-1.52.938-2.483.558-.567 1.372-.854 2.416-.854H92.26c.028 0 .062-.002.09-.004"/></g><g clip-path="url(#geqga)"><path d="M86.6 42.901H55.426a.865.865 0 1 0 0 1.731h31.176a.866.866 0 0 0 0-1.73"/></g><g clip-path="url(#geqga)"><path d="M86.6 53.705H55.426a.865.865 0 1 0 0 1.731h31.176a.866.866 0 0 0 0-1.73"/></g><g clip-path="url(#geqga)"><path d="M87.466 65.065a.866.866 0 0 0-.865-.865H55.425a.865.865 0 1 0 0 1.73h31.176a.866.866 0 0 0 .865-.865"/></g><g clip-path="url(#geqga)"><path d="M41.43 92.254a.865.865 0 0 1 1.21.177l.396.53 2.605-.845.072-1.375a.848.848 0 0 1 .252-.55l-4.511 1.462a.606.606 0 0 1-.762-.389l-9.256-28.548-.835.287a.86.86 0 0 1-1.016-.382l9.46 29.178a2.324 2.324 0 0 0 2.182 1.612.86.86 0 0 1 .203-1.157"/></g><g clip-path="url(#geqga)"><path d="M33.31 42.767a2.32 2.32 0 0 0-1.16-1.36 2.316 2.316 0 0 0-1.782-.14l-4.753 1.54a2.338 2.338 0 0 0-1.5 2.942l5.364 16.547a.853.853 0 0 1 .56-.93l.863-.296-5.142-15.855a.607.607 0 0 1 .39-.762l4.752-1.54a.609.609 0 0 1 .461.036.6.6 0 0 1 .301.352l5.109 15.757.469-.161a.864.864 0 1 1 .56 1.637l-.495.17 9.288 28.647a.602.602 0 0 1-.037.462.571.571 0 0 1-.108.136c.058-.008.113-.028.172-.025a.866.866 0 0 1 .819.91l-.03.57c.284-.213.523-.48.69-.805.282-.555.333-1.189.14-1.782z"/></g><g clip-path="url(#geqga)"><path d="M30.32 63.05a.86.86 0 0 0 .28-.047l.836-.286 5.87-2.013.497-.17a.864.864 0 1 0-.561-1.637l-.47.161-5.87 2.012-.862.296a.852.852 0 0 0-.56.93c.007.057.003.113.022.17.02.056.053.105.083.155a.86.86 0 0 0 .735.43"/></g><g clip-path="url(#geqga)"><path d="M46.622 89.924c-.06-.003-.114.017-.172.026a.856.856 0 0 0-.485.242.845.845 0 0 0-.252.55l-.073 1.375-.213 4.052-2.392-3.209-.395-.53a.867.867 0 0 0-1.21-.176.859.859 0 0 0-.203 1.157c.011.018.013.037.025.055l4.22 5.659a.865.865 0 0 0 1.557-.472l.382-7.25.03-.57a.866.866 0 0 0-.819-.91"/></g><g clip-path="url(#geqga)"><path d="M78.679 100.005H50.795a.866.866 0 0 0 0 1.73H78.68a.866.866 0 0 0 0-1.73"/></g><g clip-path="url(#geqga)"><path d="M100.718 110.872c-8.62 0-15.63-7.012-15.63-15.63 0-8.62 7.01-15.63 15.63-15.63 8.618 0 15.63 7.01 15.63 15.63 0 8.618-7.012 15.63-15.63 15.63m0-32.992c-9.574 0-17.362 7.788-17.362 17.362 0 9.572 7.788 17.361 17.362 17.361 9.573 0 17.36-7.789 17.36-17.361 0-9.574-7.787-17.362-17.36-17.362"/></g><g clip-path="url(#geqga)"><path d="M100.748 85.952a1.183 1.183 0 1 0 0-2.366 1.183 1.183 0 0 0 0 2.366"/></g><g clip-path="url(#geqga)"><path d="M100.748 104.986a1.183 1.183 0 1 0 0 2.366 1.183 1.183 0 0 0 0-2.366"/></g><g clip-path="url(#geqga)"><path d="M90.408 94.234a1.183 1.183 0 1 0 0 2.366 1.183 1.183 0 0 0 0-2.366"/></g><g clip-path="url(#geqga)"><path d="M111.346 94.183a1.183 1.183 0 1 0 0 2.366 1.183 1.183 0 0 0 0-2.366"/></g><g clip-path="url(#geqga)"><path d="M101.973 95.64v-5.47a.865.865 0 1 0-1.73 0v5.86c0 .247.106.483.291.647l6.276 5.562a.866.866 0 0 0 1.149-1.296z"/></g><g clip-path="url(#geqga)"><path d="M69.47 86.39c.623.172 1.2.424 1.737.756.536.332.804.842.804 1.528 0 .622-.225 1.153-.675 1.592-.45.44-1.072.702-1.866.788zm-2.99-2.348c-.472-.258-.708-.686-.708-1.287 0-.621.226-1.11.675-1.463.45-.353 1.05-.563 1.801-.628v4.086c-.707-.215-1.298-.45-1.768-.708m2.38 10.679c.406 0 .61-.237.61-.708v-1.705c1.158-.107 2.107-.472 2.847-1.093.74-.623 1.11-1.459 1.11-2.51 0-.835-.214-1.49-.644-1.962a4.207 4.207 0 0 0-1.56-1.077 15.505 15.505 0 0 0-1.753-.595v-4.407c.558.065 1.014.188 1.368.37.353.183.638.35.852.5.172.15.343.224.514.224a.576.576 0 0 0 .45-.225c.13-.15.194-.3.194-.45a.614.614 0 0 0-.258-.515 4.739 4.739 0 0 0-1.27-.772c-.504-.213-1.12-.342-1.85-.386v-.868c0-.471-.204-.708-.61-.708-.408 0-.612.237-.612.708v.868c-1.2.108-2.144.462-2.83 1.062-.687.6-1.03 1.373-1.03 2.316 0 .686.188 1.238.563 1.656.375.418.858.756 1.448 1.013.59.257 1.206.461 1.85.611v4.953a5.224 5.224 0 0 1-1.657-.514c-.504-.258-.896-.558-1.174-.901a.82.82 0 0 0-.547-.225.77.77 0 0 0-.514.193.643.643 0 0 0-.225.515c0 .15.053.3.16.45.387.45.922.842 1.609 1.174.686.333 1.468.53 2.347.595v1.705c0 .471.204.708.611.708"/></g></g></g></g></g></svg>

<?xml version="1.0" encoding="UTF-8" standalone="no"?>
<!DOCTYPE svg PUBLIC "-//W3C//DTD SVG 1.1//EN" "http://www.w3.org/Graphics/SVG/1.1/DTD/svg11.dtd">
<svg width="100%" height="100%" viewBox="0 0 142 142" version="1.1" xmlns="http://www.w3.org/2000/svg" xmlns:xlink="http://www.w3.org/1999/xlink" xml:space="preserve" xmlns:serif="http://www.serif.com/" style="fill-rule:evenodd;clip-rule:evenodd;stroke-linejoin:round;stroke-miterlimit:2;">
    <g>
        <g>
            <g>
                <g>
                    <g>
                        <path d="M92.35,30.738C92.366,30.736 93.853,30.6 94.897,31.545C95.645,32.223 96.024,33.323 96.024,34.815L96.024,75.663C96.04,76.127 96.426,76.5 96.889,76.5C97.353,76.5 97.739,76.127 97.755,75.663L97.755,34.816C97.755,32.802 97.178,31.264 96.04,30.246C94.537,28.9 92.587,28.986 92.222,29.011L49.663,29.011C48.129,29.011 46.897,29.477 46,30.396C44.543,31.89 44.577,34.026 44.579,34.096L44.579,71.239C44.601,71.698 44.985,72.063 45.444,72.063C45.903,72.063 46.287,71.698 46.309,71.239L46.309,34.079C46.309,34.064 46.299,32.559 47.247,31.596C47.805,31.029 48.619,30.742 49.663,30.742L92.26,30.742C92.288,30.742 92.322,30.74 92.35,30.738" style="fill-rule:nonzero;"/>
                    </g>
                    <g>
                        <path d="M86.6,42.901L55.426,42.901C54.951,42.901 54.561,43.292 54.561,43.767C54.561,44.241 54.951,44.632 55.426,44.632L86.602,44.632C87.061,44.61 87.426,44.226 87.426,43.767C87.426,43.308 87.061,42.924 86.602,42.902" style="fill-rule:nonzero;"/>
                    </g>
                    <g>
                        <path d="M86.6,53.705L55.426,53.705C54.951,53.705 54.561,54.096 54.561,54.57C54.561,55.045 54.951,55.436 55.426,55.436L86.602,55.436C87.061,55.414 87.426,55.03 87.426,54.571C87.426,54.112 87.061,53.728 86.602,53.706" style="fill-rule:nonzero;"/>
                    </g>
                    <g>
                        <path d="M87.466,65.065C87.465,64.591 87.075,64.201 86.601,64.2L55.425,64.2C54.95,64.2 54.56,64.59 54.56,65.065C54.56,65.54 54.95,65.93 55.425,65.93L86.601,65.93C87.075,65.929 87.465,65.539 87.466,65.065" style="fill-rule:nonzero;"/>
                    </g>
                    <g>
                        <path d="M41.43,92.254C41.81,91.971 42.357,92.051 42.64,92.431L43.036,92.961L45.641,92.116L45.713,90.741C45.727,90.533 45.816,90.337 45.965,90.191L41.454,91.653C41.138,91.755 40.795,91.579 40.692,91.264L31.436,62.716L30.601,63.003C30.216,63.132 29.79,62.972 29.585,62.621L39.045,91.799C39.35,92.747 40.232,93.398 41.227,93.411C40.981,93.034 41.07,92.525 41.43,92.254" style="fill-rule:nonzero;"/>
                    </g>
                    <g>
                        <path d="M33.31,42.767C33.121,42.177 32.703,41.687 32.15,41.407C31.599,41.124 30.957,41.073 30.368,41.267L25.615,42.807C24.398,43.204 23.721,44.531 24.115,45.749L29.479,62.296C29.419,61.893 29.655,61.501 30.039,61.366L30.902,61.07L25.76,45.215C25.659,44.899 25.835,44.556 26.15,44.453L30.902,42.913C31.054,42.864 31.22,42.877 31.363,42.949C31.506,43.021 31.615,43.148 31.664,43.301L36.773,59.058L37.242,58.897C37.332,58.866 37.427,58.85 37.522,58.85C37.997,58.85 38.387,59.241 38.387,59.715C38.387,60.084 38.151,60.415 37.802,60.534L37.307,60.704L46.595,89.351C46.645,89.504 46.631,89.67 46.558,89.813C46.529,89.864 46.493,89.909 46.45,89.949C46.508,89.941 46.563,89.921 46.622,89.924C47.096,89.949 47.466,90.36 47.441,90.834L47.411,91.404C47.695,91.191 47.934,90.924 48.101,90.599C48.383,90.044 48.434,89.41 48.241,88.817L33.31,42.767Z" style="fill-rule:nonzero;"/>
                    </g>
                    <g>
                        <path d="M30.32,63.05C30.415,63.05 30.51,63.034 30.6,63.003L31.436,62.717L37.306,60.704L37.803,60.534C38.152,60.414 38.388,60.084 38.388,59.715C38.388,59.241 37.997,58.85 37.523,58.85C37.427,58.85 37.332,58.866 37.242,58.897L36.772,59.058L30.902,61.07L30.04,61.366C29.656,61.501 29.42,61.893 29.48,62.296C29.487,62.353 29.483,62.409 29.502,62.466C29.522,62.522 29.555,62.571 29.585,62.621C29.737,62.884 30.017,63.048 30.32,63.051" style="fill-rule:nonzero;"/>
                    </g>
                    <g>
                        <path d="M46.622,89.924C46.562,89.921 46.508,89.941 46.45,89.95C46.266,89.976 46.096,90.061 45.965,90.192C45.816,90.338 45.726,90.534 45.713,90.742L45.64,92.117L45.427,96.169L43.035,92.96L42.64,92.43C42.356,92.051 41.811,91.972 41.43,92.254C41.07,92.524 40.981,93.034 41.227,93.411C41.238,93.429 41.24,93.448 41.252,93.466L45.472,99.125C45.635,99.344 45.892,99.473 46.165,99.473C46.623,99.473 47.005,99.11 47.029,98.653L47.411,91.403L47.441,90.833C47.466,90.359 47.096,89.948 46.622,89.923" style="fill-rule:nonzero;"/>
                    </g>
                    <g>
                        <path d="M78.679,100.005L50.795,100.005C50.336,100.027 49.971,100.411 49.971,100.87C49.971,101.329 50.336,101.713 50.795,101.735L78.68,101.735C79.139,101.713 79.504,101.329 79.504,100.87C79.504,100.411 79.139,100.027 78.68,100.005" style="fill-rule:nonzero;"/>
                    </g>
                    <g>
                        <path d="M100.718,110.872C92.098,110.872 85.088,103.86 85.088,95.242C85.088,86.622 92.098,79.612 100.718,79.612C109.336,79.612 116.348,86.622 116.348,95.242C116.348,103.86 109.336,110.872 100.718,110.872M100.718,77.88C91.144,77.88 83.356,85.668 83.356,95.242C83.356,104.814 91.144,112.603 100.718,112.603C110.291,112.603 118.078,104.814 118.078,95.242C118.078,85.668 110.291,77.88 100.718,77.88" style="fill-rule:nonzero;"/>
                    </g>
                    <g>
                        <path d="M100.748,85.952C101.397,85.952 101.931,85.418 101.931,84.769C101.931,84.12 101.397,83.586 100.748,83.586C100.099,83.586 99.565,84.12 99.565,84.769C99.565,85.418 100.099,85.952 100.748,85.952" style="fill-rule:nonzero;"/>
                    </g>
                    <g>
                        <path d="M100.748,104.986C100.099,104.986 99.565,105.52 99.565,106.169C99.565,106.818 100.099,107.352 100.748,107.352C101.397,107.352 101.931,106.818 101.931,106.169C101.931,105.52 101.397,104.986 100.748,104.986" style="fill-rule:nonzero;"/>
                    </g>
                    <g>
                        <path d="M90.408,94.234C89.759,94.234 89.225,94.768 89.225,95.417C89.225,96.066 89.759,96.6 90.408,96.6C91.057,96.6 91.591,96.066 91.591,95.417C91.591,94.768 91.057,94.234 90.408,94.234" style="fill-rule:nonzero;"/>
                    </g>
                    <g>
                        <path d="M111.346,94.183C110.697,94.183 110.163,94.717 110.163,95.366C110.163,96.015 110.697,96.549 111.346,96.549C111.995,96.549 112.529,96.015 112.529,95.366C112.529,94.717 111.995,94.183 111.346,94.183" style="fill-rule:nonzero;"/>
                    </g>
                    <g>
                        <path d="M101.973,95.64L101.973,90.17C101.973,89.695 101.583,89.305 101.108,89.305C100.633,89.305 100.243,89.695 100.243,90.17L100.243,96.03C100.243,96.277 100.349,96.513 100.534,96.677L106.81,102.239C106.968,102.379 107.172,102.456 107.384,102.456C107.859,102.456 108.25,102.065 108.25,101.59C108.25,101.343 108.144,101.107 107.959,100.943L101.973,95.64Z" style="fill-rule:nonzero;"/>
                    </g>
                    <g>
                        <path d="M69.47,86.39C70.093,86.562 70.67,86.814 71.207,87.146C71.743,87.478 72.011,87.988 72.011,88.674C72.011,89.296 71.786,89.827 71.336,90.266C70.886,90.706 70.264,90.968 69.47,91.054L69.47,86.39ZM66.48,84.042C66.008,83.784 65.772,83.356 65.772,82.755C65.772,82.134 65.998,81.645 66.447,81.292C66.897,80.939 67.497,80.729 68.248,80.664L68.248,84.75C67.541,84.535 66.95,84.3 66.48,84.042M68.86,94.721C69.266,94.721 69.47,94.484 69.47,94.013L69.47,92.308C70.628,92.201 71.577,91.836 72.317,91.215C73.057,90.592 73.427,89.756 73.427,88.705C73.427,87.87 73.213,87.215 72.783,86.743C72.352,86.27 71.818,85.902 71.223,85.666C70.651,85.433 70.066,85.234 69.47,85.071L69.47,80.664C70.028,80.729 70.484,80.852 70.838,81.034C71.191,81.217 71.476,81.384 71.69,81.534C71.862,81.684 72.033,81.758 72.204,81.758C72.38,81.756 72.546,81.673 72.654,81.533C72.784,81.383 72.848,81.233 72.848,81.083C72.853,80.879 72.756,80.686 72.59,80.568C72.21,80.245 71.781,79.985 71.32,79.796C70.816,79.583 70.2,79.454 69.47,79.41L69.47,78.542C69.47,78.071 69.266,77.834 68.86,77.834C68.452,77.834 68.248,78.071 68.248,78.542L68.248,79.41C67.048,79.518 66.104,79.872 65.418,80.472C64.731,81.072 64.388,81.845 64.388,82.788C64.388,83.474 64.576,84.026 64.951,84.444C65.326,84.862 65.809,85.2 66.399,85.457C66.989,85.714 67.605,85.918 68.249,86.068L68.249,91.021C67.672,90.943 67.112,90.769 66.592,90.507C66.088,90.249 65.696,89.949 65.418,89.606C65.27,89.466 65.075,89.385 64.871,89.381C64.682,89.38 64.499,89.449 64.357,89.574C64.207,89.702 64.124,89.892 64.132,90.089C64.132,90.239 64.185,90.389 64.292,90.539C64.679,90.989 65.214,91.381 65.901,91.713C66.587,92.046 67.369,92.243 68.248,92.308L68.248,94.013C68.248,94.484 68.452,94.721 68.859,94.721" style="fill-rule:nonzero;"/>
                    </g>
                </g>
            </g>
        </g>
    </g>
</svg>
